X: 16872
T: Hatchlings, The
R: jig
M: 6/8
K: Edorian
|:E/F/GA Bgf|eEF G{A}GF|E/F/GA B{c}BA|Bcd DGF|
E/F/GA B{c}BA|Bgf efg|B{c}B{A}B AFG|1 AGF E2 D:|2 AGF E2 f||
|:g2b agf|gfe Bef|g{a}gb agf|edc def|
g2b agf|gef gab|B{c}B{A}B AFG|1 AGF E2 f:|2 AGF E2 D||

